X:3
T:Jessy the Flower of Dumblain. WHG.003
R:air
S:W.H.Giles MS,Bampton,Oxfordshire,1839p4
O:England
H:donated by Mrs W.R.Kettlewell to VWML,Apr 1927.
A:Bampton, Oxfordshire
N:Bar 2 is |d>cd e>cd3/2 B/| in the MS.
N:Bar 4 is |d3/2e/f/ e2d/e/| in the MS.
N:Bar 6 is |dc/d e/cd B/| in the MS.
N:Bar 17 is |A>BG F<A de| in the MS.
N:The last note looks more like a rest, on d.
C:Song by Robert Tannahill(1774-1810),1808.Paisley-born weaver.
C:Tune by R A Smith.
Z:PJHeadford – VMP 2009
M:6/8
L:1/8
Q:3/8=60
K:D
d/e/|”^Edited by PJH, see notes”f>gf e>af|\
d>cd e>cd {B/}|A>BG F>Ad|d>ef {f}e2d/e/|
f>gf e>af|d>cd e<cd {B/}|A>BG F<Ad|{f} e>Bc d2||
f|f>de f>ba|fde f>de|edc eaf|e/dB B/ A2A/e|
dfe fde|faf g<ef|g>ab a>fd|e>Bc d/c/d/B/d/e/|
A>BG F<A d/e/|f>af g<ef|g>ab a>fd|e>Bc d2|]

